3/images/index/rule2.svg

<svg width="60" height="60" viewBox="0 0 60 60" fill="none" xmlns="http://www.w3.org/2000/svg">
<rect width="60" height="60" fill="#68B738"/>
<path d="M28.375 16C26.7437 16 25.475 17.3594 25.475 19.0812C25.475 20.8031 26.7437 22.1625 28.375 22.1625C30.0063 22.1625 31.275 20.8031 31.275 19.0812C31.275 17.3594 30.0063 16 28.375 16ZM28.375 17.1781C29.3719 17.1781 30.0969 18.0209 30.0969 19.0812C30.0969 20.0781 29.3084 20.9844 28.375 20.9844C27.3781 20.9844 26.6531 20.1416 26.6531 19.0812C26.6531 18.0844 27.4325 17.1781 28.375 17.1781ZM17.5 40.7406C17.5 41.9188 17.9078 42.9156 18.8594 43.7313C19.8563 44.5831 21.0344 44.5106 21.0344 44.5106H40.0656C40.845 44.5106 41.8781 44.13 42.6937 43.0606C43.5366 42.0638 43.4822 40.7044 43.4822 40.7044V23.4856C43.4822 23.0506 43.3734 22.8875 42.7391 22.8875C42.1047 22.8875 42.0503 23.1594 42.0503 23.4766V40.6953C42.0322 40.9944 41.9778 41.7828 41.3072 42.4172C40.5731 43.0425 39.8572 42.9609 39.8572 42.9609C39.8572 42.9609 21.7322 42.9609 20.8259 42.9338C20.4816 42.8703 19.9197 42.7434 19.3759 42.0275C18.8684 41.3025 18.9681 40.3962 18.9681 40.3962V23.1775C18.9681 22.7153 18.7325 22.5431 18.2431 22.5431C17.7538 22.5431 17.5 22.7153 17.5 23.1231V40.7406ZM33.8125 24.4281C32.725 24.6637 31.6375 24.8088 29.5531 26.7844C27.4688 28.7781 25.9281 28.6875 24.3875 28.5969C22.8469 28.5063 21.2156 27.0563 20.9438 26.6938C20.6084 26.3403 20.0375 26.5759 19.8562 26.8116C19.7022 27.0472 19.7022 27.455 19.965 27.8084C21.2338 28.9866 22.4119 29.8928 24.6775 30.0741C26.9431 30.2916 29.1181 29.2675 30.5681 27.8084C32.0181 26.3584 32.7431 26.0866 33.8306 25.9053C36.4587 25.4884 37.9994 26.5216 38.9056 27.1741C39.9025 28.2616 40.1744 27.9534 40.4462 27.6453C40.99 26.9294 40.2197 26.3766 39.3588 25.7422C37.5463 24.5641 35.8244 24.1109 33.8306 24.4734L33.8125 24.4281ZM24.75 31.5875C23.5719 31.5875 22.6656 32.5844 22.6656 33.8531C22.6656 35.1219 23.5719 36.1188 24.75 36.1188C25.9281 36.1188 26.8344 35.1219 26.8344 33.8531C26.8344 32.5844 25.9281 31.5875 24.75 31.5875ZM36.5312 32.3669C34.9906 32.3669 33.7219 33.7262 33.7219 35.3575C33.7219 36.9888 34.9906 38.3481 36.5312 38.3481C38.0719 38.3481 39.3406 36.9888 39.3406 35.3575C39.3406 33.7262 38.0719 32.3669 36.5312 32.3669ZM36.5312 33.8169C37.3288 33.8169 37.9813 34.5147 37.9813 35.3575C37.9813 36.2184 37.3288 36.8981 36.5312 36.8981C35.7337 36.8981 35.0812 36.2003 35.0812 35.3575C35.0812 34.4966 35.7337 33.8169 36.5312 33.8169Z" fill="white"/>
</svg>

<svg width="60" height="60" fill="none" xmlns="http://www.w3.org/2000/svg"><path fill="#68B738" d="M0 0h60v60H0z"/><path d="M28.375 16c-1.631 0-2.9 1.36-2.9 3.081 0 1.722 1.269 3.082 2.9 3.082s2.9-1.36 2.9-3.082c0-1.722-1.269-3.081-2.9-3.081Zm0 1.178c.997 0 1.722.843 1.722 1.903 0 .997-.789 1.903-1.722 1.903-.997 0-1.722-.842-1.722-1.903 0-.997.78-1.903 1.722-1.903ZM17.5 40.741c0 1.178.408 2.175 1.36 2.99.996.852 2.174.78 2.174.78h19.032c.779 0 1.812-.381 2.628-1.45.843-.997.788-2.357.788-2.357V23.486c0-.435-.109-.599-.743-.599s-.689.272-.689.59v17.218c-.018.3-.072 1.088-.743 1.722-.734.625-1.45.544-1.45.544s-18.125 0-19.031-.027c-.344-.064-.906-.19-1.45-.906-.508-.725-.408-1.632-.408-1.632V23.177c0-.462-.235-.634-.725-.634s-.743.172-.743.58v17.618Zm16.313-16.313c-1.088.236-2.176.38-4.26 2.356-2.084 1.994-3.625 1.904-5.166 1.813-1.54-.09-3.171-1.54-3.443-1.903-.336-.354-.906-.118-1.088.118-.154.235-.154.643.109.996 1.269 1.179 2.447 2.085 4.712 2.266 2.266.218 4.441-.807 5.891-2.266 1.45-1.45 2.175-1.721 3.263-1.903 2.628-.417 4.168.617 5.075 1.27.997 1.087 1.268.778 1.54.47.544-.716-.226-1.268-1.087-1.903-1.813-1.178-3.535-1.631-5.528-1.269l-.019-.045Zm-9.063 7.16c-1.178 0-2.084.996-2.084 2.265 0 1.269.906 2.266 2.084 2.266s2.084-.997 2.084-2.266c0-1.269-.906-2.266-2.084-2.266Zm11.781.779c-1.54 0-2.81 1.36-2.81 2.99 0 1.632 1.27 2.991 2.81 2.991s2.81-1.36 2.81-2.99c0-1.632-1.27-2.991-2.81-2.991Zm0 1.45c.798 0 1.45.698 1.45 1.54 0 .861-.652 1.541-1.45 1.541-.797 0-1.45-.698-1.45-1.54 0-.861.653-1.541 1.45-1.541Z" fill="#fff"/></svg>
